Newaita-dark/devices/48/media-flash-ms.svg

<svg height="48pt" viewBox="0 0 48 48" width="48pt" xmlns="http://www.w3.org/2000/svg" xmlns:xlink="http://www.w3.org/1999/xlink"><linearGradient id="a"><stop offset="0" stop-opacity=".27451"/><stop offset="1" stop-opacity="0"/></linearGradient><linearGradient id="b" gradientUnits="userSpaceOnUse" x1="23.814782" x2="23.814782" xlink:href="#a" y1="41.9733075" y2="43.95787331253"/><linearGradient id="c"><stop offset="0" stop-opacity=".313725"/><stop offset=".222222" stop-opacity=".27451"/><stop offset="1" stop-opacity="0"/></linearGradient><radialGradient id="d" cx="450.90894" cy="189.57936" gradientTransform="matrix(.00000026 -.117199 -.210958 -.00000015 75.715265 95.315406)" gradientUnits="userSpaceOnUse" r="21.166656" xlink:href="#c"/><radialGradient id="e" cx="450.90894" cy="189.57936" gradientTransform="matrix(-.00000026 .117199 .210958 .00000015 -28.085718 -11.368814)" gradientUnits="userSpaceOnUse" r="21.166656" xlink:href="#c"/><radialGradient id="f" cx="450.90894" cy="189.57936" gradientTransform="matrix(-.00000026 -.117199 .210958 -.00000015 -28.085718 95.315406)" gradientUnits="userSpaceOnUse" r="21.166656" xlink:href="#c"/><radialGradient id="g" cx="450.90894" cy="189.57936" gradientTransform="matrix(.00000026 .117199 -.210958 .00000015 75.715263 -11.368815)" gradientUnits="userSpaceOnUse" r="21.166656" xlink:href="#c"/><linearGradient id="h" gradientUnits="userSpaceOnUse" x1="46.141131" x2="46.141131" xlink:href="#a" y1="41.9733075" y2="43.95787331253"/><radialGradient id="i" cx="450.90894" cy="189.57936" gradientTransform="matrix(-.00000026 .117199 .210958 .00000015 -5.759368 -11.368814)" gradientUnits="userSpaceOnUse" r="21.166656" xlink:href="#c"/><radialGradient id="j" cx="450.90894" cy="189.57936" gradientTransform="matrix(-.00000026 -.117199 .210958 -.00000015 -5.759368 95.315406)" gradientUnits="userSpaceOnUse" r="21.166656" xlink:href="#c"/><radialGradient id="k" cx="450.90894" cy="189.57936" gradientTransform="matrix(.00000026 -.117199 -.210958 -.00000015 53.388913 95.315406)" gradientUnits="userSpaceOnUse" r="21.166656" xlink:href="#c"/><radialGradient id="l" cx="450.90894" cy="189.57936" gradientTransform="matrix(.00000026 .117199 -.210958 .00000015 53.38891 -11.368815)" gradientUnits="userSpaceOnUse" r="21.166656" xlink:href="#c"/><linearGradient id="m" gradientUnits="userSpaceOnUse" x1="23.814786" x2="23.814786" y1="46.02003312506" y2=".375026"><stop offset="0" stop-color="#78909c"/><stop offset="1" stop-color="#90a4ae"/></linearGradient><linearGradient id="n" gradientUnits="userSpaceOnUse" x1="23.814786" x2="23.814786" xlink:href="#a" y1=".375026" y2="48.004598"/><path d="m11.410156 42.011719h2.480469v2.023437h-2.480469zm0 0" fill="url(#b)"/><path d="m36.21875 41.972656h3.96875v-1.984375h-3.96875zm0 0" fill="url(#d)"/><path d="m11.410156 41.972656h-3.96875v1.984375h3.96875zm0 0" fill="url(#e)"/><path d="m11.410156 41.972656h-3.96875v-1.984375h3.96875zm0 0" fill="url(#f)"/><path d="m36.21875 41.972656h3.96875v1.984375h-3.96875zm0 0" fill="url(#g)"/><path d="m33.738281 42.011719h2.480469v2.023437h-2.480469zm0 0" fill="url(#h)"/><path d="m33.738281 41.972656h-3.96875v1.984375h3.96875zm0 0" fill="url(#i)"/><path d="m33.738281 41.972656h-3.96875v-1.984375h3.96875zm0 0" fill="url(#j)"/><path d="m13.890625 41.972656h3.96875v-1.984375h-3.96875zm0 0" fill="url(#k)"/><path d="m13.890625 41.972656h3.96875v1.984375h-3.96875zm0 0" fill="url(#l)"/><path d="m17.859375 4.355469c-.523437 0-1.023437.207031-1.394531.578125l-7.9375 7.9375c-.371094.371094-.578125.871094-.578125 1.394531v25.800781c0 1.089844.882812 1.976563 1.972656 1.976563h5.953125v-.984375c0-1.097656.886719-1.984375 1.984375-1.984375h11.910156c1.097657 0 1.984375.886719 1.984375 1.984375v.984375h5.953125c1.089844 0 1.976563-.886719 1.976563-1.976563v-33.738281c0-1.089844-.886719-1.972656-1.976563-1.972656zm0 0" fill="url(#m)"/><path d="m17.859375 38.339844c-1.097656 0-1.984375.882812-1.984375 1.984375v.734375c0-1.097656.886719-1.984375 1.984375-1.984375h11.910156c1.097657 0 1.984375.886719 1.984375 1.984375v-.734375c0-1.101563-.886718-1.984375-1.984375-1.984375zm-9.910156.992187v.734375c0 1.089844.882812 1.976563 1.972656 1.976563h5.953125v-.734375h-5.953125c-1.089844-.003906-1.972656-.886719-1.972656-1.976563zm31.734375 0c0 1.089844-.886719 1.972657-1.976563 1.976563h-5.953125v.734375h5.953125c1.089844 0 1.976563-.886719 1.976563-1.976563zm0 0" fill-opacity=".235294"/><path d="m18.851562 8.324219c-.523437 0-1.023437.207031-1.394531.578125l-4.960937 4.960937c-.371094.371094-.578125.871094-.578125 1.394531v18.855469c0 1.089844.882812 1.972657 1.972656 1.972657h19.847656c1.089844 0 1.972657-.882813 1.972657-1.972657v-23.816406c0-1.089844-.882813-1.972656-1.972657-1.972656zm0 0" fill="url(#n)"/><path d="m11.917969 34.113281v.742188c0 1.09375.882812 1.976562 1.972656 1.976562h19.847656c1.089844 0 1.972657-.882812 1.972657-1.976562v-.742188c0 1.089844-.882813 1.972657-1.972657 1.972657h-19.847656c-1.089844 0-1.972656-.882813-1.972656-1.972657zm0 0" fill="#fff" fill-opacity=".392157"/><path d="m18.851562 8.324219c-.523437 0-1.023437.207031-1.394531.578125l-4.960937 4.960937c-.371094.371094-.578125.871094-.578125 1.394531v.734376c0-.523438.207031-1.023438.578125-1.394532l4.960937-4.960937c.371094-.371094.871094-.578125 1.394531-.578125h14.886719c1.089844 0 1.972657.882812 1.972657 1.972656v-.734375c0-1.089844-.882813-1.972656-1.972657-1.972656zm0 0" fill-opacity=".235294"/><path d="m201.064133-126.216812c-5.582801 0-10.915625 2.208123-14.87358 6.166078l-52.911614 52.911614c-3.957955 3.957955-6.166078 9.290779-6.166078 14.87358v201.105795c0 11.62389 9.415768 21.039657 21.039658 21.039657h211.688118c11.62389 0 21.039657-9.415767 21.039657-21.039657v-254.017409c0-11.62389-9.415767-21.039658-21.039657-21.039658zm0 0" fill="none" stroke="#212121" stroke-linecap="round" stroke-linejoin="round" stroke-width="3" transform="matrix(.093759 0 0 .093759 0 20.158175)"/><path d="m17.859375 4.355469c-.523437 0-1.023437.207031-1.394531.578125l-7.9375 7.9375c-.371094.371094-.578125.871094-.578125 1.394531v.492187c0-.523437.207031-1.027343.578125-1.398437l7.9375-7.9375c.371094-.371094.871094-.578125 1.394531-.578125h19.847656c1.089844 0 1.976563.882812 1.976563 1.976562v-.492187c0-1.089844-.886719-1.972656-1.976563-1.972656zm0 0" fill="#fff" fill-opacity=".392157"/><path d="m719.931259 175.573787c-21.100347 0-41.255903 8.34566-56.215105 23.304861l-319.969448 319.969449c-14.959202 14.959201-23.304862 35.114757-23.304862 56.215105v1040.058173c0 43.932813 35.587154 79.677431 79.519967 79.677431h239.977086v-39.68125c0-44.247744 35.744618-79.992363 79.992362-79.992363h480.111638c44.247744 0 79.992362 35.744619 79.992362 79.992363v39.68125h239.977087c43.932813 0 79.677431-35.744618 79.677431-79.677431v-1360.027622c0-43.932813-35.744618-79.519966-79.677431-79.519966zm0 0" fill="none" stroke="#212121" stroke-linecap="round" stroke-linejoin="round" stroke-width="11.338583" transform="scale(.0248071)"/></svg>

<?xml version="1.0" encoding="UTF-8"?>
<svg xmlns="http://www.w3.org/2000/svg" xmlns:xlink="http://www.w3.org/1999/xlink" width="48pt" height="48pt" viewBox="0 0 48 48" version="1.1">
<defs>
<linearGradient id="linear0" gradientUnits="userSpaceOnUse" x1="254" y1="233.5" x2="254" y2="254.66667" gradientTransform="matrix(0.093759,0,0,0.093759,-0.00000375036,20.080581)">
<stop offset="0" style="stop-color:rgb(0%,0%,0%);stop-opacity:0.27451;"/>
<stop offset="1" style="stop-color:rgb(0%,0%,0%);stop-opacity:0;"/>
</linearGradient>
<radialGradient id="radial0" gradientUnits="userSpaceOnUse" cx="450.90894" cy="189.57936" fx="450.90894" fy="189.57936" r="21.166656" gradientTransform="matrix(0.000000261256,-0.117199,-0.210958,-0.000000152308,75.715265,95.315406)">
<stop offset="0" style="stop-color:rgb(0%,0%,0%);stop-opacity:0.313725;"/>
<stop offset="0.222222" style="stop-color:rgb(0%,0%,0%);stop-opacity:0.27451;"/>
<stop offset="1" style="stop-color:rgb(0%,0%,0%);stop-opacity:0;"/>
</radialGradient>
<radialGradient id="radial1" gradientUnits="userSpaceOnUse" cx="450.90894" cy="189.57936" fx="450.90894" fy="189.57936" r="21.166656" gradientTransform="matrix(-0.000000261256,0.117199,0.210958,0.000000152308,-28.085718,-11.368814)">
<stop offset="0" style="stop-color:rgb(0%,0%,0%);stop-opacity:0.313725;"/>
<stop offset="0.222222" style="stop-color:rgb(0%,0%,0%);stop-opacity:0.27451;"/>
<stop offset="1" style="stop-color:rgb(0%,0%,0%);stop-opacity:0;"/>
</radialGradient>
<radialGradient id="radial2" gradientUnits="userSpaceOnUse" cx="450.90894" cy="189.57936" fx="450.90894" fy="189.57936" r="21.166656" gradientTransform="matrix(-0.000000261256,-0.117199,0.210958,-0.000000152308,-28.085718,95.315406)">
<stop offset="0" style="stop-color:rgb(0%,0%,0%);stop-opacity:0.313725;"/>
<stop offset="0.222222" style="stop-color:rgb(0%,0%,0%);stop-opacity:0.27451;"/>
<stop offset="1" style="stop-color:rgb(0%,0%,0%);stop-opacity:0;"/>
</radialGradient>
<radialGradient id="radial3" gradientUnits="userSpaceOnUse" cx="450.90894" cy="189.57936" fx="450.90894" fy="189.57936" r="21.166656" gradientTransform="matrix(0.000000261256,0.117199,-0.210958,0.000000152308,75.715263,-11.368815)">
<stop offset="0" style="stop-color:rgb(0%,0%,0%);stop-opacity:0.313725;"/>
<stop offset="0.222222" style="stop-color:rgb(0%,0%,0%);stop-opacity:0.27451;"/>
<stop offset="1" style="stop-color:rgb(0%,0%,0%);stop-opacity:0;"/>
</radialGradient>
<linearGradient id="linear1" gradientUnits="userSpaceOnUse" x1="254" y1="233.5" x2="254" y2="254.66667" gradientTransform="matrix(0.093759,0,0,0.093759,22.326345,20.080581)">
<stop offset="0" style="stop-color:rgb(0%,0%,0%);stop-opacity:0.27451;"/>
<stop offset="1" style="stop-color:rgb(0%,0%,0%);stop-opacity:0;"/>
</linearGradient>
<radialGradient id="radial4" gradientUnits="userSpaceOnUse" cx="450.90894" cy="189.57936" fx="450.90894" fy="189.57936" r="21.166656" gradientTransform="matrix(-0.000000261256,0.117199,0.210958,0.000000152308,-5.759368,-11.368814)">
<stop offset="0" style="stop-color:rgb(0%,0%,0%);stop-opacity:0.313725;"/>
<stop offset="0.222222" style="stop-color:rgb(0%,0%,0%);stop-opacity:0.27451;"/>
<stop offset="1" style="stop-color:rgb(0%,0%,0%);stop-opacity:0;"/>
</radialGradient>
<radialGradient id="radial5" gradientUnits="userSpaceOnUse" cx="450.90894" cy="189.57936" fx="450.90894" fy="189.57936" r="21.166656" gradientTransform="matrix(-0.000000261256,-0.117199,0.210958,-0.000000152308,-5.759368,95.315406)">
<stop offset="0" style="stop-color:rgb(0%,0%,0%);stop-opacity:0.313725;"/>
<stop offset="0.222222" style="stop-color:rgb(0%,0%,0%);stop-opacity:0.27451;"/>
<stop offset="1" style="stop-color:rgb(0%,0%,0%);stop-opacity:0;"/>
</radialGradient>
<radialGradient id="radial6" gradientUnits="userSpaceOnUse" cx="450.90894" cy="189.57936" fx="450.90894" fy="189.57936" r="21.166656" gradientTransform="matrix(0.000000261256,-0.117199,-0.210958,-0.000000152308,53.388913,95.315406)">
<stop offset="0" style="stop-color:rgb(0%,0%,0%);stop-opacity:0.313725;"/>
<stop offset="0.222222" style="stop-color:rgb(0%,0%,0%);stop-opacity:0.27451;"/>
<stop offset="1" style="stop-color:rgb(0%,0%,0%);stop-opacity:0;"/>
</radialGradient>
<radialGradient id="radial7" gradientUnits="userSpaceOnUse" cx="450.90894" cy="189.57936" fx="450.90894" fy="189.57936" r="21.166656" gradientTransform="matrix(0.000000261256,0.117199,-0.210958,0.000000152308,53.38891,-11.368815)">
<stop offset="0" style="stop-color:rgb(0%,0%,0%);stop-opacity:0.313725;"/>
<stop offset="0.222222" style="stop-color:rgb(0%,0%,0%);stop-opacity:0.27451;"/>
<stop offset="1" style="stop-color:rgb(0%,0%,0%);stop-opacity:0;"/>
</radialGradient>
<linearGradient id="linear2" gradientUnits="userSpaceOnUse" x1="254" y1="275.83334" x2="254" y2="-211" gradientTransform="matrix(0.093759,0,0,0.093759,0,20.158175)">
<stop offset="0" style="stop-color:rgb(47.058824%,56.470588%,61.176471%);stop-opacity:1;"/>
<stop offset="1" style="stop-color:rgb(56.470588%,64.313725%,68.235294%);stop-opacity:1;"/>
</linearGradient>
<linearGradient id="linear3" gradientUnits="userSpaceOnUse" x1="254" y1="-211" x2="254" y2="297" gradientTransform="matrix(0.093759,0,0,0.093759,0,20.158175)">
<stop offset="0" style="stop-color:rgb(0%,0%,0%);stop-opacity:0.27451;"/>
<stop offset="1" style="stop-color:rgb(0%,0%,0%);stop-opacity:0;"/>
</linearGradient>
</defs>
<g id="surface1">
<path style=" stroke:none;fill-rule:nonzero;fill:url(#linear0);" d="M 11.410156 42.011719 L 13.890625 42.011719 L 13.890625 44.035156 L 11.410156 44.035156 Z M 11.410156 42.011719 "/>
<path style=" stroke:none;fill-rule:nonzero;fill:url(#radial0);" d="M 36.21875 41.972656 L 40.1875 41.972656 L 40.1875 39.988281 L 36.21875 39.988281 Z M 36.21875 41.972656 "/>
<path style=" stroke:none;fill-rule:nonzero;fill:url(#radial1);" d="M 11.410156 41.972656 L 7.441406 41.972656 L 7.441406 43.957031 L 11.410156 43.957031 Z M 11.410156 41.972656 "/>
<path style=" stroke:none;fill-rule:nonzero;fill:url(#radial2);" d="M 11.410156 41.972656 L 7.441406 41.972656 L 7.441406 39.988281 L 11.410156 39.988281 Z M 11.410156 41.972656 "/>
<path style=" stroke:none;fill-rule:nonzero;fill:url(#radial3);" d="M 36.21875 41.972656 L 40.1875 41.972656 L 40.1875 43.957031 L 36.21875 43.957031 Z M 36.21875 41.972656 "/>
<path style=" stroke:none;fill-rule:nonzero;fill:url(#linear1);" d="M 33.738281 42.011719 L 36.21875 42.011719 L 36.21875 44.035156 L 33.738281 44.035156 Z M 33.738281 42.011719 "/>
<path style=" stroke:none;fill-rule:nonzero;fill:url(#radial4);" d="M 33.738281 41.972656 L 29.769531 41.972656 L 29.769531 43.957031 L 33.738281 43.957031 Z M 33.738281 41.972656 "/>
<path style=" stroke:none;fill-rule:nonzero;fill:url(#radial5);" d="M 33.738281 41.972656 L 29.769531 41.972656 L 29.769531 39.988281 L 33.738281 39.988281 Z M 33.738281 41.972656 "/>
<path style=" stroke:none;fill-rule:nonzero;fill:url(#radial6);" d="M 13.890625 41.972656 L 17.859375 41.972656 L 17.859375 39.988281 L 13.890625 39.988281 Z M 13.890625 41.972656 "/>
<path style=" stroke:none;fill-rule:nonzero;fill:url(#radial7);" d="M 13.890625 41.972656 L 17.859375 41.972656 L 17.859375 43.957031 L 13.890625 43.957031 Z M 13.890625 41.972656 "/>
<path style=" stroke:none;fill-rule:nonzero;fill:url(#linear2);" d="M 17.859375 4.355469 C 17.335938 4.355469 16.835938 4.5625 16.464844 4.933594 L 8.527344 12.871094 C 8.15625 13.242188 7.949219 13.742188 7.949219 14.265625 L 7.949219 40.066406 C 7.949219 41.15625 8.832031 42.042969 9.921875 42.042969 L 15.875 42.042969 L 15.875 41.058594 C 15.875 39.960938 16.761719 39.074219 17.859375 39.074219 L 29.769531 39.074219 C 30.867188 39.074219 31.753906 39.960938 31.753906 41.058594 L 31.753906 42.042969 L 37.707031 42.042969 C 38.796875 42.042969 39.683594 41.15625 39.683594 40.066406 L 39.683594 6.328125 C 39.683594 5.238281 38.796875 4.355469 37.707031 4.355469 Z M 17.859375 4.355469 "/>
<path style=" stroke:none;fill-rule:nonzero;fill:rgb(0%,0%,0%);fill-opacity:0.235294;" d="M 17.859375 38.339844 C 16.761719 38.339844 15.875 39.222656 15.875 40.324219 L 15.875 41.058594 C 15.875 39.960938 16.761719 39.074219 17.859375 39.074219 L 29.769531 39.074219 C 30.867188 39.074219 31.753906 39.960938 31.753906 41.058594 L 31.753906 40.324219 C 31.753906 39.222656 30.867188 38.339844 29.769531 38.339844 Z M 7.949219 39.332031 L 7.949219 40.066406 C 7.949219 41.15625 8.832031 42.042969 9.921875 42.042969 L 15.875 42.042969 L 15.875 41.308594 L 9.921875 41.308594 C 8.832031 41.304688 7.949219 40.421875 7.949219 39.332031 Z M 39.683594 39.332031 C 39.683594 40.421875 38.796875 41.304688 37.707031 41.308594 L 31.753906 41.308594 L 31.753906 42.042969 L 37.707031 42.042969 C 38.796875 42.042969 39.683594 41.15625 39.683594 40.066406 Z M 39.683594 39.332031 "/>
<path style=" stroke:none;fill-rule:nonzero;fill:url(#linear3);" d="M 18.851562 8.324219 C 18.328125 8.324219 17.828125 8.53125 17.457031 8.902344 L 12.496094 13.863281 C 12.125 14.234375 11.917969 14.734375 11.917969 15.257812 L 11.917969 34.113281 C 11.917969 35.203125 12.800781 36.085938 13.890625 36.085938 L 33.738281 36.085938 C 34.828125 36.085938 35.710938 35.203125 35.710938 34.113281 L 35.710938 10.296875 C 35.710938 9.207031 34.828125 8.324219 33.738281 8.324219 Z M 18.851562 8.324219 "/>
<path style=" stroke:none;fill-rule:nonzero;fill:rgb(100%,100%,100%);fill-opacity:0.392157;" d="M 11.917969 34.113281 L 11.917969 34.855469 C 11.917969 35.949219 12.800781 36.832031 13.890625 36.832031 L 33.738281 36.832031 C 34.828125 36.832031 35.710938 35.949219 35.710938 34.855469 L 35.710938 34.113281 C 35.710938 35.203125 34.828125 36.085938 33.738281 36.085938 L 13.890625 36.085938 C 12.800781 36.085938 11.917969 35.203125 11.917969 34.113281 Z M 11.917969 34.113281 "/>
<path style=" stroke:none;fill-rule:nonzero;fill:rgb(0%,0%,0%);fill-opacity:0.235294;" d="M 18.851562 8.324219 C 18.328125 8.324219 17.828125 8.53125 17.457031 8.902344 L 12.496094 13.863281 C 12.125 14.234375 11.917969 14.734375 11.917969 15.257812 L 11.917969 15.992188 C 11.917969 15.46875 12.125 14.96875 12.496094 14.597656 L 17.457031 9.636719 C 17.828125 9.265625 18.328125 9.058594 18.851562 9.058594 L 33.738281 9.058594 C 34.828125 9.058594 35.710938 9.941406 35.710938 11.03125 L 35.710938 10.296875 C 35.710938 9.207031 34.828125 8.324219 33.738281 8.324219 Z M 18.851562 8.324219 "/>
<path style="fill:none;stroke-width:3;stroke-linecap:round;stroke-linejoin:round;stroke:rgb(12.941176%,12.941176%,12.941176%);stroke-opacity:1;stroke-miterlimit:4;" d="M 201.064133 -126.216812 C 195.481332 -126.216812 190.148508 -124.008689 186.190553 -120.050734 L 133.278939 -67.13912 C 129.320984 -63.181165 127.112861 -57.848341 127.112861 -52.26554 L 127.112861 148.840255 C 127.112861 160.464145 136.528629 169.879912 148.152519 169.879912 L 359.840637 169.879912 C 371.464527 169.879912 380.880294 160.464145 380.880294 148.840255 L 380.880294 -105.177154 C 380.880294 -116.801044 371.464527 -126.216812 359.840637 -126.216812 Z M 201.064133 -126.216812 " transform="matrix(0.093759,0,0,0.093759,0,20.158175)"/>
<path style=" stroke:none;fill-rule:nonzero;fill:rgb(100%,100%,100%);fill-opacity:0.392157;" d="M 17.859375 4.355469 C 17.335938 4.355469 16.835938 4.5625 16.464844 4.933594 L 8.527344 12.871094 C 8.15625 13.242188 7.949219 13.742188 7.949219 14.265625 L 7.949219 14.757812 C 7.949219 14.234375 8.15625 13.730469 8.527344 13.359375 L 16.464844 5.421875 C 16.835938 5.050781 17.335938 4.84375 17.859375 4.84375 L 37.707031 4.84375 C 38.796875 4.84375 39.683594 5.726562 39.683594 6.820312 L 39.683594 6.328125 C 39.683594 5.238281 38.796875 4.355469 37.707031 4.355469 Z M 17.859375 4.355469 "/>
<path style="fill:none;stroke-width:11.338583;stroke-linecap:round;stroke-linejoin:round;stroke:rgb(12.941176%,12.941176%,12.941176%);stroke-opacity:1;stroke-miterlimit:4;" d="M 719.931259 175.573787 C 698.830912 175.573787 678.675356 183.919447 663.716154 198.878648 L 343.746706 518.848097 C 328.787504 533.807298 320.441844 553.962854 320.441844 575.063202 L 320.441844 1615.121375 C 320.441844 1659.054188 356.028998 1694.798806 399.961811 1694.798806 L 639.938897 1694.798806 L 639.938897 1655.117556 C 639.938897 1610.869812 675.683515 1575.125193 719.931259 1575.125193 L 1200.042897 1575.125193 C 1244.290641 1575.125193 1280.035259 1610.869812 1280.035259 1655.117556 L 1280.035259 1694.798806 L 1520.012346 1694.798806 C 1563.945159 1694.798806 1599.689777 1659.054188 1599.689777 1615.121375 L 1599.689777 255.093753 C 1599.689777 211.16094 1563.945159 175.573787 1520.012346 175.573787 Z M 719.931259 175.573787 " transform="matrix(0.0248071,0,0,0.0248071,0,0)"/>
</g>
</svg>
